X:1
T:Six Songs from A Shropshire Lad
T:The lads in their hundreds
T:6 Songs from A Shropshire Lad
T:George Butterworth
T:5. The lads in their hundreds
T:Alfred Edward Housman
T:Creative Commons copyright waiver (CC0 1.0 Universal)
T:Creative Commons copyright waiver (CC0 1.0 Universal)
T:Creative Commons copyright waiver (CC0 1.0 Universal)
T:Creative Commons copyright waiver (CC0 1.0 Universal)
T:Creative Commons copyright waiver (CC0 1.0 Universal)
C:George Butterworth
Z:Alfred Edward Housman
Z:Creative Commons copyright waiver (CC0 1.0 Universal)
%%score 1 { ( 2 4 ) | ( 3 5 ) }
L:1/8
Q:1/4=116
M:6/8
K:F#
V:1 treble nm="Voice"
V:2 treble nm="Piano"
V:4 treble 
V:3 bass 
V:5 bass 
V:1
!p!"^Allegretto, sempre tranquillo e senza rigore." C | C D E F G A ||[M:9/8] B A B G F G E2 D || %3
w: The|lads in their hun- dreds to|Lud- low come in for the fair, There's|
[M:6/8] C D E F G A | B A B G A B | c3- c z c | d c d B A G ||[M:9/8] c B c A G F (GA) B | %8
w: men from the barn and the|forge and the mill and the|fold, _ The|lads for the girls and the|lads for the liqu- or are there, * And|
 c d =e d3- d c B | A3- A G F C F E ||[M:6/8] F6- ||[M:9/8] F z z z2 z z2 C || %12
w: there with the rest _ are the|lads _ that will ne- ver be|old.|_ There's|
[M:6/8] C D E F G A ||[M:9/8] B A B G F G E2 D ||[M:6/8] C D E F G A | B A B G A B | c3- c z c || %17
w: chaps from the town and the|field and the till and the cart, And|ma- ny to count are the|stal- wart, and ma- ny the|brave, _ And|
[M:9/8] d c d B A B G A B ||[M:6/8] c A F (GA) B | c d =e d c B | A3- A G F | C3- C F E | %22
w: ma- ny the hand- some of face and the|hand- some of heart, * And|few that will car- ry their|looks _ or their|truth _ to the|
[Q:1/4=112] F6- ||[M:9/8] F z z z2 z z2 C ||[M:6/8] !^!C D E F G A ||[M:9/8] !^!B A B G F G E2 D || %26
w: grave.|_ I|wish one could know them, I|wish there were tok- ens to tell The|
[M:6/8] C D E F G A | B A B G A B | c3- c z c ||[M:9/8] d c d B A B G A B ||[M:6/8] c A F (GA) B || %31
w: for- tun- ate fel- lows that|now you can ne- ver dis-|cern; _ And|then one could talk with them friend- ly and|wish them fare- well * And|
[M:9/8] c d =e d3- d c B | A3- A G F C F E ||[M:6/8] F6- ||[M:9/8] F z z z2 z z2 C || %35
w: watch them de- part _ on the|way _ that they will not re-|turn.|_ But|
[M:6/8] C D E F G A ||[M:9/8] B A B G F G E2 D ||[M:6/8] C D E F G A | %38
w: now you may stare as you|like and there's noth- ing to scan; And|brush- ing your el- bow un-|
"^Note to transcriber:\nFor English lyrics we follow the IMSLP\nversion's method of hyphenating words\nthat continue on the next system\n" B A B G A B | %39
w: guessed at and not to be|
 c3- c z c | d c"^poco allargando" d[Q:1/4=112] B A G ||[M:9/8][Q:1/4=108] c B c A G F (GA) B | %42
w: told _ They|car- ry back bright to the|coin- er the mint- age of man, * The|
[Q:1/4=106] c d =e d3- d c B | A3- A G[Q:1/4=112] F C F E ||[M:6/8]"^a tempo"[Q:1/4=116] F6- || %45
w: lads that will die _ in their|glo- * ry and ne- ver be|old.|
[M:9/8] F z z z2 z z2 z | z9 ||[M:6/8][Q:1/4=114] z6 || %48
w: _|||
[M:9/8][Q:1/4=112] z9[Q:1/4=110][Q:1/4=100] | !fermata!z9 |] %50
w: ||
V:2
 z |!p! (c6 ||[M:9/8] [FB]6 [EG]2) z ||[M:6/8] (c6 | [Fd]3 [G-B]3 | [Gc]6) | (d6 ||[M:9/8] c6 B3 | %8
 [GA]3 [GB]6 | [FA]6- [FA]2 [EG]) ||[M:6/8]!mp!!<(! (F>GA Bcd!<)! || %11
[M:9/8]!>(! c3- cBA G>EC)!>)! ||[M:6/8]!p! (c6 ||[M:9/8] [FB]6 [EG]2) z ||[M:6/8] (c6 | %15
 [Fd]3 [G-B]3 | [Gc]6) ||[M:9/8] ([Fd-]6 [Gd]3 ||[M:6/8] c3 B3 | A3 B3 | [FA]6- | %21
 [FA]3 [GB][FA][EG]) |!mp!!<(! (F>GA Bcd!<)! ||[M:9/8]!>(! c3- cBA G>EC)!>)! ||[M:6/8]!p! (c6 || %25
[M:9/8] [FB]6 [EG]2)!p! z ||[M:6/8] (c6 | [Fd]3 [G-B]3 | [Gc]6) ||[M:9/8] ([Fd-]6 [Gd]3 || %30
[M:6/8] c3 B3 ||[M:9/8] [GA]3 [GB]6 | [FA]6- [FA]2 [EG]) ||[M:6/8]!mp!!<(! (F>GA Bcd || %34
[M:9/8] c3-!<)!!>(! cBA G>EC)!>)! ||[M:6/8]!p! (c6 ||[M:9/8] [FB]6 [EG]2) z ||[M:6/8] (c6 | %38
 [Fd]3 [G-B]3 | [Gc]6) |"_colla voce" (d6 ||[M:9/8] c6 B3 | [GA]3 [GB]6 | [FA]6- [FA]2 [EG]) || %44
[M:6/8]!mp!!<(! (F>GA Bcd ||[M:9/8] c3-!<)! c!>(!BA G>EC)!>)! | %46
!<(! (c3-!<)!!mf!!>(! cBA G>EC)!>)! ||[M:6/8]!mp!!<(! (c3-!<)!!<(! cBd || %48
[M:9/8]!mf!!>(! f>!<)!ed c"^rit."AF) (.[Fd].[Ec].[DB])!>)! |!mp! [CA]6- !fermata![CA]3 |] %50
V:3
 z | (C6 ||[M:9/8] [G,D]6 C2) z ||[M:6/8] (C6 | [G,B,]3 [DF-]3 | F3 E3) | (B,3 E3 || %7
[M:9/8] A,6 D3 | [C=E]3 D3 ^E3 | A,3 B,3 C3) ||[M:6/8] (D2 C B,>A,[G,B,] || %11
[M:9/8] [A,C]3 [B,D]3 [CE]) z z ||[M:6/8] (C6 ||[M:9/8] [G,D]6 C2) z ||[M:6/8] (C6 | %15
 [G,B,]3 [DF-]3 | F3 E3) ||[M:9/8] (B,6 E3 ||[M:6/8] A,3 D3 | [C=E]3 D2 ^E | A,3 B,3 | C6) | %22
 (D2 C B,>A,[G,B,] ||[M:9/8] [A,C]3 [B,D]3 [CE]) z z ||[M:6/8] (C6 ||[M:9/8] [G,D]6 C2) z || %26
[M:6/8] (C6 | [G,B,]3 [DF-]3 | F3 E3) ||[M:9/8] (B,6 E3 ||[M:6/8] A,3 D3 ||[M:9/8] [C=E]3 D3 ^E3 | %32
 A,3 B,3 C3) ||[M:6/8] (D2 C B,>A,[G,B,] ||[M:9/8] [A,C]3 [B,D]3 [CE]) z z ||[M:6/8] (C6 || %36
[M:9/8] [G,D]6 C2) z ||[M:6/8] (C6 | [G,B,]3 [DF-]3 | F3 E3) | (B,3 E3 ||[M:9/8] A,6 D3 | %42
 [C=E]3 D3 ^E3 | A,3 B,3 C3) ||[M:6/8] (D2 C B,>A,[G,B,] ||[M:9/8] [A,C]3 [B,D]3 [CE]) z z | %46
 ([A,C]3 [B,D]3 [CE]) z z ||[M:6/8] ([A,C]3 [B,D]3 || %48
[M:9/8] [G,D]3 [A,F]) z z (.[B,,F,]2 .[C,E,]) | [F,,F,]6- !fermata![F,,F,]3 |] %50
V:4
 x | [EG]3 F3 ||[M:9/8] x9 ||[M:6/8] [EG]3 F3 | x6 | x6 | F3 G3 ||[M:9/8] E3 F6 | x9 | x9 || %10
[M:6/8] F2 E D2 E ||[M:9/8] F>GA G2 F x3 ||[M:6/8] [EG]3 F3 ||[M:9/8] x9 ||[M:6/8] [EG]3 F3 | x6 | %16
 x6 ||[M:9/8] x9 ||[M:6/8] E2 F- F3 | G6 | x6 | x6 | F2 E D2 E ||[M:9/8] F>GA G2 F x3 || %24
[M:6/8] [EG]3 F3 ||[M:9/8] x9 ||[M:6/8] [EG]3 F3 | x6 | x6 ||[M:9/8] x9 ||[M:6/8] E2 F- F3 || %31
[M:9/8] x9 | x9 ||[M:6/8] F2 E D2 E ||[M:9/8] F>GA G2 F x3 ||[M:6/8] [EG]3 F3 ||[M:9/8] x9 || %37
[M:6/8] [EG]3 F3 | x6 | x6 | F3 G3 ||[M:9/8] E3 F6 | x9 | x9 ||[M:6/8] F2 E D2 E || %45
[M:9/8] F>GA G2 F x3 | F>GA G2 F x3 ||[M:6/8] F>GA G3 ||[M:9/8] B3 c z z x3 | x9 |] %50
V:5
 x | B,3 A,3 ||[M:9/8] x9 ||[M:6/8] B,3 A,3 | x6 | C6 | x6 ||[M:9/8] x9 | x3 G,6 | x9 || %10
[M:6/8] x6 ||[M:9/8] x9 ||[M:6/8] B,3 A,3 ||[M:9/8] x9 ||[M:6/8] B,3 A,3 | x6 | C6 ||[M:9/8] x9 || %18
[M:6/8] x6 | x3 G,3 | x6 | x6 | x6 ||[M:9/8] x9 ||[M:6/8] B,3 A,3 ||[M:9/8] x9 ||[M:6/8] B,3 A,3 | %27
 x6 | C6 ||[M:9/8] x9 ||[M:6/8] x6 ||[M:9/8] x3 G,3 x3 | x9 ||[M:6/8] x6 ||[M:9/8] x9 || %35
[M:6/8] B,3 A,3 ||[M:9/8] x9 ||[M:6/8] B,3 A,3 | x6 | C6 | x6 ||[M:9/8] x9 | x3 G,6 | x9 || %44
[M:6/8] x6 ||[M:9/8] x9 | x9 ||[M:6/8] x6 ||[M:9/8] x9 | x9 |] %50

